!!!COM: Bach, Johann Sebastian!!!COM: Bach, Johann Sebastian
!!!OTL: 217. Ach Gott, wie manches Herzeleid!!!OTL: 217. Ach Gott, wie manches Herzeleid
!!!ONM: No. 217!!!ONM: No. 217
!!!OCL: Erk!!!OCL: Erk
!!!SCA: BWV 153.9!!!SCA: BWV 153.9
!!!YOE: Riemenschneider, Albert!!!YOE: Riemenschneider, Albert
!!!OPR: 371 Harmonized Chorales and 69 Chorale Melodies with Figured Bass!!!OPR: 371 Harmonized Chorales and 69 Chorale Melodies with Figured Bass
!!!OPT: Bach Chorale Harmonizations!!!OPT: Bach Chorale Harmonizations
!!!ONB: From the end of Cantata 153!!!ONB: From the end of Cantata 153
**kern	**kern	**kern	**kern	**harm	**root	**kern
!bass	!tenor	!alto	!sprno	!	!	!
*Iorgan	*Iorgan	*Iorgan	*Iorgan	*Iorgan	*Iorgan	*
*k[]	*k[]	*k[]	*k[]	*k[]	*k[]	*k[]
*C:	*C:	*C:	*C:	*C:	*C:	*C:
*M3/4	*M3/4	*M3/4	*M3/4	*M3/4	*M3/4	*M3/4
*MM60	*MM60	*MM60	*MM60	*MM60	*MM60	*MM60
=1-	=1-	=1-	=1-	=1-	=1-	=1-
4C	4G	4e	4cc	I	4CC	4C 4e 4g
4E	4c	4g	4cc	Ib	4CC	4c 4E 4g
4C	4e	4g	4cc	I	4CC	4C 4e 4g
=2	=2	=2	=2	=2	=2	=2
2F	4c	4f	4a	IV	4FF	4F 4a 4cc
.	4d	4g	4b	V7d	4GG	4g 4b 4dd 4F
4E	4e	4g	4cc	Ib	4CC	4c 4E 4g
=3	=3	=3	=3	=3	=3	=3
2F#	2d	2a	4dd	Vb/V	2DD	2d 2F# 2a
.	.	.	4cc	.	.	.
4G	4d	4g	4b	V	4GG	4G 4b 4dd
=4	=4	=4	=4	=4	=4	=4
2.D;	2.d;	2.f#;	2.a;	V/V;	2.DD;	2.D; 2.f#; 2.a;
=5	=5	=5	=5	=5	=5	=5
4D	4d	4f#	4a	V/V	4DD	4D 4f# 4a
4G	4d	4g	4b	V	4GG	4G 4b 4dd
4E	4e	4g	4cc	Ib	4CC	4c 4E 4g
=6	=6	=6	=6	=6	=6	=6
2BB	2d	2g	2dd	Vb	2GG	2g 2B 2dd
4C	4e	4g	4cc	I	4CC	4C 4e 4g
=7	=7	=7	=7	=7	=7	=7
4G	4d	4g	4b	V	4GG	4G 4b 4dd
2D	4.d	4g	2a	V/V	2DD	2D 2f# 2a
.	.	4f#	.	.	.	.
.	8c	.	.	.	.	.
=8	=8	=8	=8	=8	=8	=8
2.GG;	2.B;	2.g;	2.g;	V;	2.GG;	2.G; 2.b; 2.dd;
=9	=9	=9	=9	=9	=9	=9
!!linebreak: 2!!linebreak: 2
4c	4c	4g	4ee	I	4CC	4C 4e 4g
4G#	4B	4e	4ee	Vb/vi	4EE	4e 4G# 4b
4E	4e	4g#	4ee	V/vi	4EE	4E 4g# 4b
=10	=10	=10	=10	=10	=10	=10
2A	4e	4a	4cc	vi	4AA	4A 4cc 4ee
.	4f	4b	4dd	vii7d	4BB	4b 4dd 4ff# 4A
4AA	4g	4cc#	4ee	V7/ii	4AA	4A 4cc# 4ee 4gg
=11	=11	=11	=11	=11	=11	=11
4D	4f	4dd	4ff	ii	4DD	4D 4f 4a
4E	4g	2cc	2ee	Ib	4CC	4c 4E 4g
4F	4c	.	.	IV7	4FF	4F 4a 4cc 4ee
=12	=12	=12	=12	=12	=12	=12
2.G;	2.B;	2.g;	2.dd;	V;	2.GG;	2.G; 2.b; 2.dd;
=13	=13	=13	=13	=13	=13	=13
4E	4c	4g	4cc	Ib	4CC	4c 4E 4g
4D	4F	4b	4dd	viib	4BB	4b 4D 4ff#
4C	4G	4cc	4ee	I	4CC	4C 4e 4g
=14	=14	=14	=14	=14	=14	=14
4F	4A	4cc	2dd	ii7b	4DD	4d 4F 4a 4cc
4G	4B	4b	.	V	4GG	4G 4b 4dd
4A	4c	4e	4cc	vi	4AA	4A 4cc 4ee
=15	=15	=15	=15	=15	=15	=15
4F#	4d	4a	4cc	V7b/V	4DD	4d 4F# 4a 4cc
4G	2d	2g	2b	V	2GG	2G 2b 2dd
4GG	.	.	.	.	.	.
=16	=16	=16	=16	=16	=16	=16
2.C;	2.e;	2.g;	2.cc;	I;	2.CC;	2.C; 2.e; 2.g;
==	==	==	==	==	==	==
*-	*-	*-	*-	*-	*-	*-
!!!CDT: 1685/3//-1750/7/28!!!CDT: 1685/3//-1750/7/28
!!!OCY: Deutschland!!!OCY: Deutschland
!!!AGN: chorale!!!AGN: chorale
!!!AST: Baroque!!!AST: Baroque
!!!AIN: vox!!!AIN: vox
!!!YOY: 1941!!!YOY: 1941
!!!PPP: New York; London!!!PPP: New York; London
!!!PPR: G. Schirmer!!!PPR: G. Schirmer
!!!ENC: David Huron!!!ENC: David Huron
!!!EED: David Huron!!!EED: David Huron
!!!YEN: United States of America!!!YEN: United States of America
!!!YER: 1992!!!YER: 1992
!!!YEC: Copyright 1992 David Huron!!!YEC: Copyright 1992 David Huron
!!!YEM: Rights to all derivative electronic formats reserved.!!!YEM: Rights to all derivative electronic formats reserved.
!!!YER: March 20, 1996!!!YER: March 20, 1996
!!!AMT: simple quadruple!!!AMT: simple quadruple
!!!EEV: 1.1!!!EEV: 1.1
!!chor2scor: -l 2 -s 0.6 -o %b.pmx!!chor2scor: -l 2 -s 0.6 -o %b.pmx
